public/img/clients/pall.svg

<svg width="200" height="100" viewBox="0 0 200 100" fill="none" xmlns="http://www.w3.org/2000/svg">
<path d="M65.6193 36.282H51.3733V62.13H56.4818V55.2448H65.6193C70.7966 55.2448 74.2569 50.9186 74.2569 45.6994C74.2569 40.4856 70.7966 36.282 65.6193 36.282H65.6193ZM65.8839 49.975H56.4791V41.4292L65.1246 41.4372C68.0584 41.3226 68.9103 43.9002 68.9288 45.6995C68.95 47.8692 68.1695 49.5352 65.8838 49.975" fill="black"/>
<path d="M97.9444 85.8488C125.444 85.8488 152.185 77.5215 164.481 65.132C169.137 60.4406 171.5 55.456 171.5 50.3087C171.5 44.7884 168.844 39.2573 163.807 34.3073C151.246 21.9471 125.653 14.3956 98.6032 15.038C58.6376 15.9949 28.5 31.0314 28.5 50.0075C28.5 55.6185 31.1243 61.2269 36.0926 66.2355C48.1005 78.3345 71.7989 85.8488 97.9444 85.8488V85.8488ZM33.2831 50.0075C33.2831 34.2487 62.6376 20.7209 98.7169 19.8493C124.542 19.2336 148.78 26.2653 160.466 37.7619C164.556 41.7789 166.714 46.1211 166.714 50.3088C166.714 66.3821 133.934 81.0267 97.9444 81.0267C73.3995 81.0267 50.4471 73.8804 39.4762 62.8289C35.3651 58.6839 33.2831 54.3737 33.2831 50.0075" fill="black"/>
<path d="M101.703 62.1399L88.5103 36.2839H85.423L73.1558 62.1399H78.8066L81.2007 57.0007L93.5023 56.9927L96.1267 62.1399L101.703 62.1399ZM83.4283 52.0161L87.1373 44.5045L90.968 52.0161H83.4283Z" fill="black"/>
<path d="M105.976 62.131H125.214V57.471H111.238V36.307H105.976V62.131Z" fill="black"/>
<path d="M129.514 62.131H149.786L149.776 57.479H134.773V36.283L129.514 36.275V62.131Z" fill="black"/>
</svg>

<svg xmlns="http://www.w3.org/2000/svg" focusable="false" role="img" viewBox="0 0 200 100" fill="currentColor">
  <path d="M65.62 36.282H51.372V62.13h5.109v-6.885h9.137c5.178 0 8.638-4.326 8.638-9.545 0-5.214-3.46-9.418-8.638-9.418zm.264 13.693h-9.405v-8.546l8.646.008c2.933-.114 3.785 2.463 3.804 4.263.021 2.17-.76 3.835-3.045 4.275"/>
  <path d="M97.944 85.849c27.5 0 54.241-8.327 66.537-20.717 4.656-4.691 7.019-9.676 7.019-14.823 0-5.52-2.656-11.052-7.693-16.002-12.561-12.36-38.154-19.911-65.204-19.269-39.965.957-70.103 15.993-70.103 34.97 0 5.61 2.624 11.219 7.593 16.228C48.1 78.335 71.799 85.849 97.944 85.849zm-64.66-35.841c0-15.76 29.354-29.287 65.433-30.159 25.825-.615 50.063 6.416 61.749 17.913 4.09 4.017 6.248 8.36 6.248 12.547 0 16.073-32.78 30.718-68.77 30.718-24.544 0-47.497-7.147-58.468-18.198-4.11-4.145-6.193-8.455-6.193-12.821"/>
  <path d="M101.703 62.14L88.51 36.284h-3.087L73.156 62.14h5.65L81.202 57l12.301-.007 2.625 5.147h5.576zM83.428 52.016l3.71-7.511 3.83 7.511h-7.54zM105.976 62.131h19.238v-4.66h-13.976V36.307h-5.262v25.824zM129.514 62.131h20.272l-.01-4.652h-15.003V36.283l-5.259-.008v25.856z"/>
</svg>
